image/google.svg

<svg width="81" height="24" viewBox="0 0 81 24" fill="none" xmlns="http://www.w3.org/2000/svg">
<g clip-path="url(#clip0_1_397)">
<path d="M77.5373 23.9514H3.46264C3.07245 23.9552 2.68542 23.8812 2.3242 23.7336C1.96298 23.586 1.63482 23.3679 1.35894 23.0919C1.08305 22.816 0.864985 22.4878 0.717493 22.1265C0.570002 21.7653 0.496052 21.3782 0.499972 20.9881V3.21072C0.495963 2.82048 0.569846 2.43337 0.717298 2.07203C0.864749 1.7107 1.08281 1.38242 1.3587 1.1064C1.63459 0.83038 1.96278 0.612176 2.32405 0.464562C2.68531 0.316948 3.0724 0.24289 3.46264 0.246724H77.5373C77.9275 0.24289 78.3146 0.316948 78.6759 0.464562C79.0372 0.612176 79.3653 0.83038 79.6412 1.1064C79.9171 1.38242 80.1352 1.7107 80.2826 2.07203C80.4301 2.43337 80.504 2.82048 80.5 3.21072V20.9881C80.5 22.5881 79.196 23.9514 77.5373 23.9514Z" fill="black"/>
<path d="M77.5374 0.721559C78.9 0.721559 80.026 1.84823 80.026 3.21089V20.9882C80.026 22.3516 78.9 23.4769 77.5374 23.4769H3.46269C2.10003 23.4769 0.974026 22.3516 0.974026 20.9882V3.21089C0.974026 1.84756 2.10003 0.721559 3.46269 0.721559H77.5374ZM77.5374 0.248225H3.46269C3.07262 0.244396 2.6857 0.318391 2.32457 0.465881C1.96344 0.613371 1.63534 0.831395 1.35947 1.1072C1.08361 1.383 0.865509 1.71105 0.717937 2.07215C0.570366 2.43325 0.496284 2.82015 0.500026 3.21023V20.9876C0.496106 21.3777 0.570056 21.7648 0.717547 22.126C0.865039 22.4873 1.08311 22.8155 1.35899 23.0915C1.63488 23.3674 1.96303 23.5855 2.32426 23.7331C2.68548 23.8807 3.07251 23.9547 3.46269 23.9509H77.5374C77.9275 23.9547 78.3145 23.8807 78.6756 23.7332C79.0368 23.5856 79.3649 23.3676 79.6408 23.0917C79.9167 22.8158 80.1348 22.4877 80.2823 22.1265C80.4298 21.7653 80.5039 21.3784 80.5 20.9882V3.21089C80.5 1.61089 79.196 0.247559 77.5374 0.247559V0.248225Z" fill="#A6A6A6"/>
<path d="M28.5887 6.29194C28.5887 6.76527 28.47 7.1806 28.174 7.4766C27.8187 7.8326 27.4033 8.00994 26.87 8.00994C26.3367 8.00994 25.922 7.8326 25.5667 7.4766C25.2113 7.12127 25.0333 6.7066 25.0333 6.17327C25.0333 5.63994 25.2113 5.22527 25.5667 4.86927C25.922 4.51394 26.3367 4.33594 26.8707 4.33594C27.1073 4.33594 27.344 4.39594 27.5813 4.51394C27.8187 4.6326 27.996 4.75127 28.1147 4.9286L27.8187 5.22527C27.5813 4.9286 27.2853 4.8106 26.8707 4.8106C26.5147 4.8106 26.1593 4.9286 25.922 5.22527C25.626 5.46194 25.5073 5.81794 25.5073 6.23194C25.5073 6.64727 25.626 7.0026 25.922 7.23994C26.2187 7.47727 26.5153 7.6546 26.87 7.6546C27.2853 7.6546 27.5813 7.53594 27.878 7.23994C28.0553 7.06194 28.174 6.82527 28.174 6.5286H26.87V6.11394H28.5887V6.29194ZM31.3147 4.80994H29.7147V5.93594H31.196V6.3506H29.7147V7.4766H31.3147V7.9506H29.2413V4.39527H31.3147V4.80994ZM33.2707 7.9506H32.796V4.80994H31.7893V4.39527H34.278V4.80994H33.2707V7.9506ZM35.996 7.9506V4.39527H36.4707V7.9506H35.996ZM38.4853 7.9506H38.0113V4.80994H37.004V4.39527H39.4333V4.80994H38.426V7.9506H38.4853ZM44.1147 7.47727C43.7593 7.8326 43.3447 8.0106 42.8113 8.0106C42.278 8.0106 41.8627 7.8326 41.5073 7.47727C41.152 7.12127 40.974 6.7066 40.974 6.17327C40.974 5.63994 41.152 5.22527 41.5073 4.86927C41.8627 4.51394 42.278 4.33594 42.8113 4.33594C43.3447 4.33594 43.7593 4.51394 44.1147 4.86927C44.4707 5.22527 44.648 5.63994 44.648 6.17327C44.648 6.7066 44.4707 7.12127 44.1147 7.47727ZM41.8633 7.1806C42.1 7.41794 42.4553 7.59527 42.8113 7.59527C43.1667 7.59527 43.522 7.4766 43.7593 7.1806C43.9967 6.94327 44.174 6.58794 44.174 6.17327C44.174 5.7586 44.0553 5.4026 43.7593 5.16594C43.522 4.9286 43.1667 4.75127 42.8113 4.75127C42.4553 4.75127 42.1 4.86927 41.8633 5.16594C41.5973 5.43371 41.448 5.79583 41.448 6.17327C41.448 6.58794 41.5667 6.94327 41.8633 7.1806ZM45.3 7.9506V4.39527H45.8333L47.552 7.1806V4.39527H48.0253V7.9506H47.552L45.7147 5.04727V7.95127H45.3V7.9506Z" fill="white" stroke="white" stroke-width="0.133333" stroke-miterlimit="10"/>
<path d="M40.8553 13.1652C39.4333 13.1652 38.3073 14.2319 38.3073 15.7132C38.3049 16.0485 38.3691 16.381 38.4962 16.6912C38.6234 17.0015 38.811 17.2834 39.0481 17.5205C39.2852 17.7576 39.5671 17.9452 39.8773 18.0723C40.1876 18.1995 40.52 18.2637 40.8553 18.2612C42.278 18.2612 43.404 17.1945 43.404 15.7132C43.404 14.1725 42.2773 13.1652 40.8553 13.1652ZM40.8553 17.1945C40.0853 17.1945 39.4333 16.5426 39.4333 15.6539C39.4333 14.7652 40.0853 14.1132 40.8553 14.1132C41.626 14.1132 42.278 14.7059 42.278 15.6532C42.278 16.5425 41.626 17.1945 40.8553 17.1945ZM35.3447 13.1652C33.922 13.1652 32.796 14.2319 32.796 15.7132C32.7935 16.0486 32.8578 16.3811 32.985 16.6914C33.1122 17.0017 33.2998 17.2836 33.537 17.5207C33.7742 17.7578 34.0561 17.9454 34.3665 18.0725C34.6768 18.1996 35.0093 18.2638 35.3447 18.2612C36.7667 18.2612 37.8927 17.1945 37.8927 15.7132C37.8927 14.1725 36.7667 13.1652 35.3447 13.1652ZM35.3447 17.1945C34.574 17.1945 33.922 16.5426 33.922 15.6539C33.922 14.7652 34.574 14.1132 35.3447 14.1132C36.1147 14.1132 36.7667 14.7059 36.7667 15.6532C36.7667 16.5425 36.1147 17.1945 35.3447 17.1945ZM28.7667 13.9352V15.0019H31.3147C31.2553 15.5946 31.0187 16.0686 30.722 16.3652C30.3667 16.7206 29.774 17.1352 28.7667 17.1352C27.1667 17.1352 25.9813 15.8912 25.9813 14.2906C25.9813 12.6906 27.226 11.4465 28.7667 11.4465C29.596 11.4465 30.248 11.8019 30.722 12.2166L31.4927 11.4465C30.8407 10.8532 30.0113 10.3799 28.826 10.3799C26.6927 10.3799 24.8553 12.1572 24.8553 14.2906C24.8553 16.4239 26.6927 18.2019 28.826 18.2019C30.0113 18.2019 30.8407 17.8465 31.552 17.0759C32.2627 16.3652 32.5 15.3572 32.5 14.5872C32.5 14.3499 32.5 14.1132 32.4407 13.9352H28.7667ZM55.67 14.7652C55.4333 14.1719 54.8407 13.1652 53.5367 13.1652C52.2333 13.1652 51.1667 14.1719 51.1667 15.7132C51.1667 17.1352 52.2333 18.2612 53.6553 18.2612C54.782 18.2612 55.4927 17.5499 55.7293 17.1352L54.9 16.5425C54.604 16.9572 54.248 17.2539 53.6553 17.2539C53.0627 17.2539 52.7073 17.0166 52.4113 16.4832L55.7887 15.0612L55.67 14.7652ZM52.2333 15.5946C52.2333 14.6465 53.004 14.1132 53.5373 14.1132C53.952 14.1132 54.3667 14.3499 54.4853 14.6465L52.2333 15.5946ZM49.448 18.0246H50.5747V10.6165H49.448V18.0239V18.0246ZM47.6707 13.6979C47.374 13.4019 46.9 13.1059 46.3073 13.1059C45.0627 13.1059 43.878 14.2319 43.878 15.6539C43.878 17.0759 45.004 18.1426 46.3073 18.1426C46.9 18.1426 47.374 17.8466 47.6113 17.5499H47.67V17.9059C47.67 18.8539 47.1367 19.3872 46.3073 19.3872C45.6553 19.3872 45.1813 18.9132 45.0627 18.4985L44.1147 18.9132C44.4113 19.5652 45.122 20.3945 46.3667 20.3945C47.6707 20.3945 48.7373 19.6245 48.7373 17.7872V13.2832H47.6707V13.6979ZM46.3667 17.1952C45.596 17.1952 44.9447 16.5432 44.9447 15.6546C44.9447 14.7659 45.596 14.1139 46.3667 14.1139C47.1373 14.1139 47.7293 14.7659 47.7293 15.6539C47.7293 16.5432 47.1373 17.1952 46.3667 17.1952ZM60.826 10.6172H58.1593V18.0246H59.2853V15.2399H60.8253C62.0707 15.2399 63.2553 14.3505 63.2553 12.9285C63.2553 11.5065 62.0707 10.6172 60.826 10.6172ZM60.8853 14.1732H59.2853V11.6245H60.8853C61.7147 11.6245 62.1887 12.3359 62.1887 12.8692C62.1293 13.5212 61.6553 14.1732 60.8853 14.1732ZM67.7 13.1065C66.87 13.1065 66.0407 13.4619 65.7447 14.2326L66.7513 14.6472C66.9887 14.2326 67.3447 14.1139 67.7593 14.1139C68.352 14.1139 68.8853 14.4692 68.9447 15.0619V15.1212C68.7667 15.0025 68.2927 14.8245 67.8187 14.8245C66.752 14.8245 65.6853 15.4179 65.6853 16.4845C65.6853 17.4912 66.574 18.1432 67.522 18.1432C68.2927 18.1432 68.648 17.7879 68.9447 17.4325H69.004V18.0252H70.0707V15.1799C69.952 13.8759 68.9447 13.1065 67.7 13.1065ZM67.5814 17.1952C67.226 17.1952 66.6927 17.0172 66.6927 16.5432C66.6927 15.9506 67.3447 15.7732 67.878 15.7732C68.352 15.7732 68.5887 15.8919 68.8853 16.0099C68.7667 16.7212 68.174 17.1952 67.5814 17.1952ZM73.804 13.2839L72.5593 16.4839H72.5L71.196 13.2839H70.0113L71.9667 17.7879L70.8407 20.2766H71.9667L74.9887 13.2839H73.804ZM63.848 18.0246H64.9747V10.6179H63.848V18.0246Z" fill="white"/>
<path d="M6.66264 4.69189C6.48531 4.86989 6.36664 5.16589 6.36664 5.52189V18.6179C6.36664 18.9732 6.48531 19.2699 6.66264 19.4472L6.72264 19.5072L14.07 12.1586V12.0399L6.66264 4.69189Z" fill="url(#paint0_linear_1_397)"/>
<path d="M16.5 14.6482L14.07 12.2182V12.0408L16.5 9.61084L16.5593 9.67017L19.4627 11.3295C20.2927 11.8028 20.2927 12.5735 19.4627 13.0482L16.5 14.6482Z" fill="url(#paint1_linear_1_397)"/>
<path d="M16.5593 14.5873L14.0707 12.0986L6.66266 19.506C6.95933 19.802 7.37399 19.802 7.90733 19.5653L16.56 14.5866L16.5593 14.5873Z" fill="url(#paint2_linear_1_397)"/>
<path d="M16.5593 9.61127L7.90665 4.6926C7.37332 4.39594 6.95865 4.45527 6.66199 4.75194L14.0707 12.0999L16.5593 9.61127Z" fill="url(#paint3_linear_1_397)"/>
<path opacity="0.2" d="M16.5 14.5295L7.90733 19.3895C7.43333 19.6855 7.01866 19.6261 6.72199 19.3895L6.66266 19.4481L6.72266 19.5081C7.01866 19.7448 7.43333 19.8041 7.90733 19.5081L16.5 14.5288V14.5295Z" fill="black"/>
<path opacity="0.12" d="M6.66269 19.3885C6.48536 19.2111 6.42603 18.9151 6.42603 18.5591V18.6185C6.42603 18.9738 6.54469 19.2698 6.72203 19.4478V19.3885H6.66269ZM19.4627 12.8685L16.5 14.5291L16.5594 14.5878L19.4627 12.9285C19.878 12.6918 20.056 12.3951 20.056 12.0991C20.056 12.3951 19.8187 12.6325 19.4627 12.8691V12.8685Z" fill="black"/>
<path opacity="0.25" d="M7.9073 4.7513L19.4633 11.3293C19.8186 11.566 20.0553 11.8026 20.0553 12.0993C20.0553 11.8033 19.878 11.5066 19.4633 11.27L7.90664 4.69197C7.07797 4.21797 6.42664 4.6333 6.42664 5.58063V5.64063C6.42664 4.69197 7.07864 4.2773 7.90797 4.7513H7.9073Z" fill="white"/>
</g>
<defs>
<linearGradient id="paint0_linear_1_397" x1="13.4186" y1="5.40856" x2="3.4733" y2="15.3539" gradientUnits="userSpaceOnUse">
<stop stop-color="#00A0FF"/>
<stop offset="0.007" stop-color="#00A1FF"/>
<stop offset="0.26" stop-color="#00BEFF"/>
<stop offset="0.512" stop-color="#00D2FF"/>
<stop offset="0.76" stop-color="#00DFFF"/>
<stop offset="1" stop-color="#00E3FF"/>
</linearGradient>
<linearGradient id="paint1_linear_1_397" x1="20.55" y1="12.1008" x2="6.21134" y2="12.1008" gradientUnits="userSpaceOnUse">
<stop stop-color="#FFE000"/>
<stop offset="0.409" stop-color="#FFBD00"/>
<stop offset="0.775" stop-color="#FFA500"/>
<stop offset="1" stop-color="#FF9C00"/>
</linearGradient>
<linearGradient id="paint2_linear_1_397" x1="15.212" y1="13.4593" x2="1.72599" y2="26.946" gradientUnits="userSpaceOnUse">
<stop stop-color="#FF3A44"/>
<stop offset="1" stop-color="#C31162"/>
</linearGradient>
<linearGradient id="paint3_linear_1_397" x1="4.82399" y1="0.352602" x2="10.8467" y2="6.3746" gradientUnits="userSpaceOnUse">
<stop stop-color="#32A071"/>
<stop offset="0.069" stop-color="#2DA771"/>
<stop offset="0.476" stop-color="#15CF74"/>
<stop offset="0.801" stop-color="#06E775"/>
<stop offset="1" stop-color="#00F076"/>
</linearGradient>
<clipPath id="clip0_1_397">
<rect width="81" height="24" fill="white"/>
</clipPath>
</defs>
</svg>

<svg xmlns="http://www.w3.org/2000/svg" width="81" height="24" fill="none"><g clip-path="url(#a)"><path fill="#000" d="M77.537 23.951H3.463A2.934 2.934 0 0 1 .5 20.988V3.211A2.934 2.934 0 0 1 3.463.247h74.074A2.934 2.934 0 0 1 80.5 3.21v17.777c0 1.6-1.304 2.963-2.963 2.963Z"/><path fill="#A6A6A6" d="M77.537.722a2.504 2.504 0 0 1 2.489 2.489v17.777a2.503 2.503 0 0 1-2.489 2.489H3.463a2.503 2.503 0 0 1-2.489-2.489V3.211A2.504 2.504 0 0 1 3.463.72h74.074Zm0-.474H3.463A2.934 2.934 0 0 0 .5 3.21v17.778a2.934 2.934 0 0 0 2.963 2.963h74.074a2.935 2.935 0 0 0 2.963-2.963V3.211c0-1.6-1.304-2.963-2.963-2.963Z"/><path fill="#fff" stroke="#fff" stroke-miterlimit="10" stroke-width=".133" d="M28.589 6.292c0 .473-.119.889-.415 1.185-.355.356-.77.533-1.304.533a1.74 1.74 0 0 1-1.303-.533 1.742 1.742 0 0 1-.534-1.304c0-.533.178-.948.534-1.304.355-.355.77-.533 1.304-.533.236 0 .473.06.71.178.238.119.415.237.534.415l-.296.296c-.238-.296-.534-.414-.948-.414-.356 0-.712.118-.949.414-.296.237-.415.593-.415 1.007 0 .415.119.77.415 1.008.297.237.593.415.948.415.415 0 .711-.12 1.008-.415a.983.983 0 0 0 .296-.711H26.87v-.415h1.719v.178Zm2.726-1.482h-1.6v1.126h1.481v.415h-1.481v1.126h1.6v.474H29.24V4.395h2.074v.415Zm1.956 3.14h-.475V4.81h-1.007v-.415h2.489v.415h-1.007v3.14Zm2.725 0V4.396h.475v3.556h-.475Zm2.49 0h-.475V4.81h-1.007v-.415h2.43v.415h-1.008v3.14h.06Zm5.629-.473c-.356.356-.77.534-1.304.534-.533 0-.948-.178-1.304-.534a1.745 1.745 0 0 1-.533-1.304c0-.533.178-.948.533-1.304.356-.355.771-.533 1.304-.533.534 0 .948.178 1.304.533.356.356.533.77.533 1.304s-.177.948-.533 1.304Zm-2.252-.296c.237.237.592.414.948.414s.711-.118.948-.414c.238-.238.415-.593.415-1.008 0-.414-.119-.77-.415-1.007-.237-.237-.592-.415-.948-.415s-.711.118-.948.415a1.43 1.43 0 0 0-.415 1.007c0 .415.119.77.415 1.008Zm3.437.77V4.395h.533l1.719 2.786V4.395h.473v3.556h-.473l-1.837-2.904v2.904H45.3Z"/><path fill="#fff" d="M40.855 13.165c-1.422 0-2.548 1.067-2.548 2.548a2.532 2.532 0 0 0 2.548 2.548c1.423 0 2.549-1.066 2.549-2.548 0-1.54-1.127-2.548-2.549-2.548Zm0 4.03c-.77 0-1.422-.652-1.422-1.541 0-.889.652-1.54 1.422-1.54.771 0 1.423.592 1.423 1.54 0 .889-.652 1.54-1.423 1.54Zm-5.51-4.03c-1.423 0-2.549 1.067-2.549 2.548a2.53 2.53 0 0 0 2.549 2.548c1.422 0 2.548-1.066 2.548-2.548 0-1.54-1.126-2.548-2.548-2.548Zm0 4.03c-.771 0-1.423-.652-1.423-1.541 0-.889.652-1.54 1.423-1.54.77 0 1.422.592 1.422 1.54 0 .889-.652 1.54-1.422 1.54Zm-6.578-3.26v1.067h2.548c-.06.593-.296 1.067-.593 1.363-.355.356-.948.77-1.955.77-1.6 0-2.786-1.244-2.786-2.844 0-1.6 1.245-2.845 2.786-2.845.829 0 1.481.356 1.955.77l.77-.77c-.651-.593-1.48-1.066-2.666-1.066-2.133 0-3.97 1.777-3.97 3.91 0 2.134 1.837 3.912 3.97 3.912 1.185 0 2.015-.356 2.726-1.126.71-.71.948-1.719.948-2.489 0-.237 0-.474-.06-.652h-3.673Zm26.903.83c-.237-.593-.83-1.6-2.133-1.6-1.304 0-2.37 1.007-2.37 2.548 0 1.422 1.066 2.548 2.488 2.548 1.127 0 1.838-.711 2.074-1.126l-.829-.593c-.296.415-.652.712-1.245.712-.592 0-.948-.237-1.244-.77l3.378-1.423-.119-.296Zm-3.437.83c0-.949.771-1.482 1.304-1.482.415 0 .83.237.948.534l-2.252.948Zm-2.785 2.43h1.127v-7.408h-1.127v7.407Zm-1.777-4.327c-.297-.296-.771-.592-1.364-.592-1.244 0-2.429 1.126-2.429 2.548 0 1.422 1.126 2.489 2.43 2.489.592 0 1.066-.296 1.303-.593h.059v.356c0 .948-.533 1.481-1.363 1.481-.652 0-1.126-.474-1.244-.889l-.948.415c.296.652 1.007 1.482 2.252 1.482 1.304 0 2.37-.77 2.37-2.608v-4.504h-1.066v.415Zm-1.304 3.497c-.771 0-1.422-.652-1.422-1.54 0-.89.651-1.541 1.422-1.541.77 0 1.362.652 1.362 1.54 0 .89-.592 1.541-1.362 1.541Zm14.459-6.578h-2.667v7.408h1.126V15.24h1.54c1.246 0 2.43-.89 2.43-2.312 0-1.421-1.184-2.31-2.429-2.31Zm.06 3.556h-1.6v-2.549h1.6c.829 0 1.303.712 1.303 1.245-.06.652-.534 1.304-1.304 1.304Zm6.814-1.066c-.83 0-1.66.355-1.955 1.126l1.006.414c.238-.414.594-.533 1.008-.533.593 0 1.126.355 1.186.948v.06c-.178-.12-.652-.297-1.126-.297-1.067 0-2.134.593-2.134 1.66 0 1.006.889 1.658 1.837 1.658.77 0 1.126-.355 1.423-.71h.059v.592h1.067V15.18c-.119-1.304-1.126-2.073-2.371-2.073Zm-.119 4.088c-.355 0-.888-.178-.888-.652 0-.592.652-.77 1.185-.77.474 0 .71.119 1.007.237-.118.711-.711 1.185-1.304 1.185Zm6.223-3.911-1.245 3.2H72.5l-1.304-3.2h-1.185l1.956 4.504-1.126 2.489h1.126l3.022-6.993h-1.185Zm-9.956 4.74h1.127v-7.406h-1.127v7.407Z"/><path fill="url(#b)" d="M6.663 4.692c-.178.178-.296.474-.296.83v13.096c0 .355.118.652.296.83l.06.06 7.347-7.35v-.118L6.663 4.692Z"/><path fill="url(#c)" d="m16.5 14.648-2.43-2.43v-.177l2.43-2.43.06.06 2.903 1.659c.83.473.83 1.243 0 1.718l-2.963 1.6Z"/><path fill="url(#d)" d="M16.56 14.587 14.07 12.1l-7.407 7.407c.296.296.711.296 1.244.06l8.653-4.98v.001Z"/><path fill="url(#e)" d="M16.56 9.611 7.906 4.693c-.534-.297-.948-.238-1.245.059l7.409 7.348 2.488-2.489Z"/><path fill="#000" d="m16.5 14.53-8.593 4.86c-.474.296-.888.236-1.185 0l-.06.058.06.06c.297.237.711.296 1.185 0l8.593-4.98v.002Z" opacity=".2"/><path fill="#000" d="M6.663 19.389c-.178-.178-.237-.474-.237-.83v.06c0 .355.119.65.296.829v-.06h-.06Zm12.8-6.52-2.963 1.66.06.059 2.903-1.66c.415-.236.593-.533.593-.829 0 .296-.237.534-.593.77Z" opacity=".12"/><path fill="#fff" d="m7.907 4.751 11.556 6.578c.356.237.592.474.592.77 0-.296-.177-.592-.592-.829L7.907 4.692c-.829-.474-1.48-.059-1.48.889v.06c0-.949.652-1.364 1.481-.89Z" opacity=".25"/></g><defs><linearGradient id="b" x1="13.419" x2="3.473" y1="5.409" y2="15.354" gradientUnits="userSpaceOnUse"><stop stop-color="#00A0FF"/><stop offset=".007" stop-color="#00A1FF"/><stop offset=".26" stop-color="#00BEFF"/><stop offset=".512" stop-color="#00D2FF"/><stop offset=".76" stop-color="#00DFFF"/><stop offset="1" stop-color="#00E3FF"/></linearGradient><linearGradient id="c" x1="20.55" x2="6.211" y1="12.101" y2="12.101" gradientUnits="userSpaceOnUse"><stop stop-color="#FFE000"/><stop offset=".409" stop-color="#FFBD00"/><stop offset=".775" stop-color="orange"/><stop offset="1" stop-color="#FF9C00"/></linearGradient><linearGradient id="d" x1="15.212" x2="1.726" y1="13.459" y2="26.946" gradientUnits="userSpaceOnUse"><stop stop-color="#FF3A44"/><stop offset="1" stop-color="#C31162"/></linearGradient><linearGradient id="e" x1="4.824" x2="10.847" y1=".353" y2="6.375" gradientUnits="userSpaceOnUse"><stop stop-color="#32A071"/><stop offset=".069" stop-color="#2DA771"/><stop offset=".476" stop-color="#15CF74"/><stop offset=".801" stop-color="#06E775"/><stop offset="1" stop-color="#00F076"/></linearGradient><clipPath id="a"><path fill="#fff" d="M0 0h81v24H0z"/></clipPath></defs></svg>
